X:19019
T:South Winds
R:Waltz
C:Trad.
O:Ireland
M:3/4
L:1/8
Q:1/4=120
K:G
dc|"G"B3A G2|B3c d2|"D"A3B G2|A4 dc|"G"B3A G2|"C"E3D E2|"G"G6-|G2 z2 dc|
"G"B3A G2|B3c d2|"D"A4 B2|A4 dc|"G"B3A G2|"C"E3D E2|"G"G6-|G2 z2 (3def||
"G"g3a f2|"Em"g3f e2|"C"d3e c2|"G"d4 c2|B3A G2|"Em"B3c d2|"Am"A4 B2|"D"A2 z2 (3def|
"G"g3a f2|"Em"g3f e2|"C"d3e c2|"G"d2 G2 c2|B3A G2|"D"Ac3 F2|"C"G6-|"G"G2 z2|]

